X: 1
T: Chicken, The
M: 4/4
L: 1/8
R: reel
K: Dmaj
|:FA~A2 BAAG|FAAd (3Bcd AG|FA~A2 BAdB|1 AF~F2 EDCE:|2 AF~F2 EDde||
fd~d2 BdAd|fded (3Bcd Ae|fd~d2 BcdB|AF~F2 EFDe|
fd~d2 BdAd|fded (3Bcd Ae|fd~d2 BcdB|AFEF D2 (3G^GA||
